X: 38
T:Earl's Chair
R:Reel
M:C|
L:1/8
Q:1/2=112
E:7
K:D
A|B2dB BAFA|B2dB BAFB|AF~F2 DF~F2|AFdB ADFA|
B3d BAFA|~B2dB BAFB|AFAB dcdf|edef d3:|
f|:~e3f d2 (3Bcd|edef dBAB|~e3f d3e|fedB ADFA|
~e3f dB~B2|gB~B2 defg|afbf afeg|fedB ADFA:|
